dist/images/icons/git.svg

<svg width="26" height="26" viewBox="0 0 26 26" fill="none" xmlns="http://www.w3.org/2000/svg">
<path d="M8.37891 20.4609C8.37891 20.3594 8.27734 20.2578 8.125 20.2578C7.97266 20.2578 7.87109 20.3594 7.87109 20.4609C7.87109 20.5625 7.97266 20.6641 8.125 20.6133C8.27734 20.6133 8.37891 20.5625 8.37891 20.4609ZM6.80469 20.207C6.80469 20.3086 6.90625 20.4609 7.05859 20.4609C7.16016 20.5117 7.3125 20.4609 7.36328 20.3594C7.36328 20.2578 7.3125 20.1562 7.16016 20.1055C7.00781 20.0547 6.85547 20.1055 6.80469 20.207ZM9.08984 20.1562C8.9375 20.1562 8.83594 20.2578 8.83594 20.4102C8.83594 20.5117 8.98828 20.5625 9.14062 20.5117C9.29297 20.4609 9.39453 20.4102 9.34375 20.3086C9.34375 20.207 9.19141 20.1055 9.08984 20.1562ZM12.3906 0.65625C5.38281 0.65625 0 6.03906 0 13.0469C0 18.6836 3.50391 23.5078 8.58203 25.2344C9.24219 25.3359 9.44531 24.9297 9.44531 24.625C9.44531 24.2695 9.44531 22.543 9.44531 21.4766C9.44531 21.4766 5.89062 22.2383 5.12891 19.9531C5.12891 19.9531 4.57031 18.4805 3.75781 18.125C3.75781 18.125 2.58984 17.3125 3.80859 17.3125C3.80859 17.3125 5.07812 17.4141 5.78906 18.6328C6.90625 20.6133 8.73438 20.0547 9.49609 19.6992C9.59766 18.8867 9.90234 18.3281 10.3086 17.9727C7.46484 17.668 4.57031 17.2617 4.57031 12.3867C4.57031 10.9648 4.97656 10.3047 5.78906 9.39062C5.63672 9.03516 5.23047 7.71484 5.94141 5.9375C6.95703 5.63281 9.44531 7.30859 9.44531 7.30859C10.4609 7.00391 11.5273 6.90234 12.5938 6.90234C13.7109 6.90234 14.7773 7.00391 15.793 7.30859C15.793 7.30859 18.2305 5.58203 19.2969 5.9375C20.0078 7.71484 19.5508 9.03516 19.4492 9.39062C20.2617 10.3047 20.7695 10.9648 20.7695 12.3867C20.7695 17.2617 17.7734 17.668 14.9297 17.9727C15.3867 18.3789 15.793 19.1406 15.793 20.3594C15.793 22.0352 15.7422 24.168 15.7422 24.5742C15.7422 24.9297 15.9961 25.3359 16.6562 25.1836C21.7344 23.5078 25.1875 18.6836 25.1875 13.0469C25.1875 6.03906 19.4492 0.65625 12.3906 0.65625ZM4.92578 18.1758C4.82422 18.2266 4.875 18.3789 4.92578 18.4805C5.02734 18.5312 5.12891 18.582 5.23047 18.5312C5.28125 18.4805 5.28125 18.3281 5.17969 18.2266C5.07812 18.1758 4.97656 18.125 4.92578 18.1758ZM4.36719 17.7695C4.31641 17.8711 4.36719 17.9219 4.46875 17.9727C4.57031 18.0234 4.67188 18.0234 4.72266 17.9219C4.72266 17.8711 4.67188 17.8203 4.57031 17.7695C4.46875 17.7188 4.41797 17.7188 4.36719 17.7695ZM5.99219 19.5977C5.94141 19.6484 5.94141 19.8008 6.09375 19.9023C6.19531 20.0039 6.34766 20.0547 6.39844 19.9531C6.44922 19.9023 6.44922 19.75 6.34766 19.6484C6.24609 19.5469 6.09375 19.4961 5.99219 19.5977ZM5.43359 18.8359C5.33203 18.8867 5.33203 19.0391 5.43359 19.1406C5.53516 19.2422 5.63672 19.293 5.73828 19.2422C5.78906 19.1914 5.78906 19.0391 5.73828 18.9375C5.63672 18.8359 5.53516 18.7852 5.43359 18.8359Z" fill="hsl(0, 0%, 100%)"/>
</svg>

<svg width="26" height="26" fill="none" xmlns="http://www.w3.org/2000/svg"><path d="M8.379 20.46c0-.1-.102-.202-.254-.202-.152 0-.254.101-.254.203 0 .102.102.203.254.152.152 0 .254-.05.254-.152zm-1.574-.253c0 .102.101.254.254.254.101.05.253 0 .304-.102 0-.101-.05-.203-.203-.254-.152-.05-.305 0-.355.102zm2.285-.05c-.152 0-.254.1-.254.253 0 .102.152.152.305.102.152-.051.254-.102.203-.203 0-.102-.153-.204-.254-.153zm3.3-19.5C5.384.656 0 6.038 0 13.046c0 5.637 3.504 10.46 8.582 12.187.66.102.863-.304.863-.609v-3.148s-3.554.761-4.316-1.524c0 0-.559-1.473-1.371-1.828 0 0-1.168-.813.05-.813 0 0 1.27.102 1.981 1.32 1.117 1.981 2.945 1.423 3.707 1.067.102-.812.406-1.37.813-1.726-2.844-.305-5.739-.711-5.739-5.586 0-1.422.407-2.082 1.22-2.996-.153-.356-.56-1.676.151-3.454C6.957 5.633 9.445 7.31 9.445 7.31c1.016-.305 2.082-.407 3.149-.407 1.117 0 2.183.102 3.199.407 0 0 2.438-1.727 3.504-1.372.71 1.778.254 3.098.152 3.454.813.914 1.32 1.574 1.32 2.996 0 4.875-2.996 5.281-5.84 5.586.458.406.864 1.168.864 2.386 0 1.676-.05 3.809-.05 4.215 0 .356.253.762.913.61 5.078-1.676 8.532-6.5 8.532-12.137 0-7.008-5.739-12.39-12.797-12.39zM4.927 18.175c-.102.05-.051.203 0 .305.101.05.203.101.304.05.051-.05.051-.203-.05-.304-.102-.051-.203-.102-.254-.051zm-.559-.406c-.05.101 0 .152.102.203.101.05.203.05.254-.051 0-.05-.051-.102-.153-.152-.101-.051-.152-.051-.203 0zm1.625 1.828c-.05.05-.05.203.102.304.101.102.254.153.304.051.051-.05.051-.203-.05-.305-.102-.101-.254-.152-.356-.05zm-.558-.762c-.102.05-.102.203 0 .305.101.101.203.152.304.101.051-.05.051-.203 0-.305-.101-.101-.203-.152-.304-.101z" fill="hsl(0, 0%, 100%)"/></svg>
